svg/fluentui-system-icons/ic_fluent_edit_settings_20_regular.svg

<svg width="20" height="20" viewBox="0 0 20 20" fill="none" xmlns="http://www.w3.org/2000/svg">
<path d="M17.1794 2.92689C16.0271 1.71505 14.1027 1.69077 12.9203 2.87317L3.54545 12.2475C3.21763 12.5754 2.99008 12.9899 2.88953 13.4424L2.01191 17.3923C1.97483 17.5592 2.02559 17.7335 2.14649 17.8544C2.26739 17.9753 2.44166 18.026 2.60855 17.9889L6.53494 17.1157C7.00237 17.0118 7.43048 16.7767 7.76907 16.4381L8.20707 16.0001C8.09703 15.6111 8.02873 15.2046 8.00729 14.7857L7.06196 15.731C6.85781 15.9352 6.59969 16.0769 6.31786 16.1396L3.15855 16.8421L3.86572 13.6593C3.92502 13.3924 4.05921 13.148 4.25254 12.9547L12.2489 4.95864L15.0416 7.7513L13.7856 9.00729C14.2045 9.02872 14.6111 9.09702 15.0001 9.20705L17.1271 7.08003C18.2681 5.939 18.2913 4.09631 17.1794 2.92689ZM13.6274 3.58029C14.4123 2.79538 15.6898 2.8115 16.4547 3.61596C17.1928 4.39225 17.1774 5.61548 16.42 6.37293L15.7487 7.04418L12.9561 4.25155L13.6274 3.58029ZM11.0667 11.4429C11.37 12.5241 10.724 13.643 9.63604 13.9209L9.175 14.0387C9.16002 14.1906 9.15234 14.3448 9.15234 14.5008C9.15234 14.6885 9.16344 14.8735 9.185 15.0551L9.53456 15.1377C10.654 15.4024 11.32 16.5545 10.9906 17.6567L10.8643 18.0795C11.1215 18.2827 11.4012 18.4569 11.699 18.5974L12.0239 18.2533C12.8138 17.417 14.1445 17.4177 14.9335 18.2548L15.2708 18.6128C15.5632 18.4778 15.8386 18.3105 16.0927 18.1151L15.9365 17.5585C15.6332 16.4773 16.2792 15.3584 17.3672 15.0805L17.8277 14.9629C17.8427 14.811 17.8504 14.6568 17.8504 14.5008C17.8504 14.313 17.8393 14.128 17.8177 13.9462L17.4687 13.8637C16.3492 13.599 15.6832 12.4469 16.0126 11.3447L16.1388 10.9225C15.8815 10.7192 15.6018 10.5449 15.304 10.4044L14.9793 10.7482C14.1895 11.5845 12.8587 11.5837 12.0698 10.7466L11.7324 10.3887C11.44 10.5236 11.1646 10.6909 10.9105 10.8862L11.0667 11.4429ZM13.5014 15.5008C12.9491 15.5008 12.5014 15.0531 12.5014 14.5008C12.5014 13.9485 12.9491 13.5008 13.5014 13.5008C14.0536 13.5008 14.5014 13.9485 14.5014 14.5008C14.5014 15.0531 14.0536 15.5008 13.5014 15.5008Z" fill="#212121"/>
</svg>

<svg xmlns="http://www.w3.org/2000/svg" width="20" height="20"><path d="M17.18 2.927a2.975 2.975 0 0 0-4.26-.054l-9.375 9.375a2.438 2.438 0 0 0-.655 1.194l-.878 3.95a.5.5 0 0 0 .597.597l3.926-.873a2.518 2.518 0 0 0 1.234-.678L8.207 16a5.488 5.488 0 0 1-.2-1.214l-.945.945a1.518 1.518 0 0 1-.744.409l-3.16.702.708-3.183c.059-.267.193-.511.387-.704l7.996-7.996 2.793 2.792-1.256 1.256c.418.022.825.09 1.214.2l2.127-2.127a2.975 2.975 0 0 0 .052-4.153Zm-3.553.653a1.975 1.975 0 0 1 2.793 2.793l-.671.671-2.793-2.792.671-.672Zm-2.56 7.863a2 2 0 0 1-1.431 2.478l-.461.118a4.708 4.708 0 0 0 .01 1.016l.35.083a2 2 0 0 1 1.456 2.519l-.127.422c.257.204.537.378.835.518l.325-.344a2 2 0 0 1 2.91.002l.337.358c.292-.135.568-.302.822-.498l-.156-.556a2 2 0 0 1 1.43-2.479l.46-.117a4.702 4.702 0 0 0-.01-1.017l-.348-.082a2 2 0 0 1-1.456-2.52l.126-.421a4.32 4.32 0 0 0-.835-.519l-.325.344a2 2 0 0 1-2.91-.001l-.337-.358a4.316 4.316 0 0 0-.821.497l.156.557ZM13.5 15.5a1 1 0 1 1 0-2 1 1 0 0 1 0 2Z"/></svg>
